src/img/footer_bg_2.svg

<svg xmlns="http://www.w3.org/2000/svg" width="1440" height="900"><g stroke-width="1.51"><path d="M991 482l-34 352 229-148z" fill="#fee4eb" stroke="#fee4eb"/><path d="M957 834l334 101-105-249z" fill="#f9c7d7" stroke="#f9c7d7"/><path d="M1291 935l115-409-220 160z" fill="#f7c4d4" stroke="#f7c4d4"/><path d="M1186 686l220-160-415-44z" fill="#fcdce6" stroke="#fcdce6"/><path d="M1406,526L1138,215L991,482Z" fill="#fae1ea" stroke="#fae1ea"/><path d="M991,482L542,470L957,834Z" fill="#fff5f7" stroke="#fff5f7"/><path d="M1138 215l-223-17 76 284z" fill="#f6eef4" stroke="#f6eef4"/><path d="M915 198L542 470l449 12z" fill="#faf9fa" stroke="#faf9fa"/><path d="M542,470L510,949L957,834Z" fill="#fbe7ee" stroke="#fbe7ee"/><path d="M957 834l69 409 265-308z" fill="#efadc2" stroke="#efadc2"/><path d="M510 949l516 294-69-409z" fill="#f2bbcc" stroke="#f2bbcc"/><path d="M542,470L254,535L510,949Z" fill="#f2eef5" stroke="#f2eef5"/><path d="M915 198L488 326l54 144z" fill="#f4f8fc" stroke="#f4f8fc"/><path d="M1138 215L915-111v309z" fill="#e6e4ee" stroke="#e6e4ee"/><path d="M915 198L494 38l-6 288z" fill="#e9f1f8" stroke="#e9f1f8"/><path d="M1551,248L1250,73L1138,215Z" fill="#e7c7d8" stroke="#e7c7d8"/><path d="M1329 1257l120-135-158-187z" fill="#d981a0" stroke="#d981a0"/><path d="M1291 935l336 130-221-539z" fill="#ec9fba" stroke="#ec9fba"/><path d="M1026 1243l303 14-38-322z" fill="#da8da8" stroke="#da8da8"/><path d="M1406 526l145-278-413-33z" fill="#f0c8d8" stroke="#f0c8d8"/><path d="M1840 424l-289-176-145 278z" fill="#e2b0c0" stroke="#e2b0c0"/><path d="M510 949l-74 176 590 118z" fill="#e3b1c1" stroke="#e3b1c1"/><path d="M203 805l233 320 74-176z" fill="#e5bed0" stroke="#e5bed0"/><path d="M1449 1122l178-57-336-130z" fill="#dd7c9e" stroke="#dd7c9e"/><path d="M1801 1275l-174-210-178 57z" fill="#bc5d80" stroke="#bc5d80"/><path d="M276 342l-22 193 288-65z" fill="#ecf2f8" stroke="#ecf2f8"/><path d="M1250 73L915-111l223 326z" fill="#e0d6e4" stroke="#e0d6e4"/><path d="M488,326L276,342L542,470Z" fill="#eef4fb" stroke="#eef4fb"/><path d="M1250 73l39-518-374 334z" fill="#c3b6c8" stroke="#c3b6c8"/><path d="M1551 248l-43-199-258 24z" fill="#deb4c9" stroke="#deb4c9"/><path d="M494 38L276 342l212-16z" fill="#e3eef7" stroke="#e3eef7"/><path d="M915-111L494 38l421 160z" fill="#dfe6ef" stroke="#dfe6ef"/><path d="M-4 835l207-30 51-270z" fill="#ddd5e3" stroke="#ddd5e3"/><path d="M254,535L203,805L510,949Z" fill="#e9d9e6" stroke="#e9d9e6"/><path d="M203 805l144 397 89-77z" fill="#dbaec3" stroke="#dbaec3"/><path d="M655 1580l227-15 144-322z" fill="#be8999" stroke="#be8999"/><path d="M1627 1065l225-214-446-325z" fill="#dc90ab" stroke="#dc90ab"/><path d="M1551 248l315-308-358 109z" fill="#c89cb2" stroke="#c89cb2"/><path d="M1852 851l-12-427-434 102z" fill="#dba2b3" stroke="#dba2b3"/><path d="M915-111l-116-86L494 38z" fill="#d3dde8" stroke="#d3dde8"/><path d="M1289-445L799-197l116 86z" fill="#a7a7b3" stroke="#a7a7b3"/><path d="M1840 424l26-484-315 308z" fill="#c79aae" stroke="#c79aae"/><path d="M1852 851l49-362-61-65z" fill="#ca93a4" stroke="#ca93a4"/><path d="M655 1580l371-337-590-118z" fill="#c896a7" stroke="#c896a7"/><path d="M1026 1243l379 246-76-232z" fill="#c0728e" stroke="#c0728e"/><path d="M1329 1257l76 232 44-367z" fill="#be6585" stroke="#be6585"/><path d="M882 1565l523-76-379-246z" fill="#ba798f" stroke="#ba798f"/><path d="M1627 1065l174 210 51-424z" fill="#bb5b7f" stroke="#bb5b7f"/><path d="M483-329L354-21l140 59z" fill="#c6d6e6" stroke="#c6d6e6"/><path d="M494 38L354-21l-78 363z" fill="#d5e3f0" stroke="#d5e3f0"/><path d="M347 1202l308 378-219-455z" fill="#c394a7" stroke="#c394a7"/><path d="M1852 851l215-328-166-34z" fill="#c28a9c" stroke="#c28a9c"/><path d="M1405 1489l396-214-352-153z" fill="#b15276" stroke="#b15276"/><path d="M276,342L32,361L254,535Z" fill="#dee7f1" stroke="#dee7f1"/><path d="M203 805L-4 835l351 367z" fill="#d9b5ca" stroke="#d9b5ca"/><path d="M354-21L32 361l244-19z" fill="#d5e3f0" stroke="#d5e3f0"/><path d="M347 1202l-151 348 459 30z" fill="#b18499" stroke="#b18499"/><path d="M32,361L-4,835L254,535Z" fill="#dadee9" stroke="#dadee9"/><path d="M1801 1275l251-415-200-9z" fill="#b5587b" stroke="#b5587b"/><path d="M1901 489l233-345-294 280z" fill="#bc8d9e" stroke="#bc8d9e"/><path d="M2052 860l15-337-215 328z" fill="#ba788e" stroke="#ba788e"/><path d="M1405 1489l273 203 123-417z" fill="#9b3e63" stroke="#9b3e63"/><path d="M882 1565l427 128 96-204z" fill="#b87089" stroke="#b87089"/><path d="M655 1580l654 113-427-128z" fill="#be8698" stroke="#be8698"/><path d="M354-21L-22-134l54 495z" fill="#bfd1e3" stroke="#bfd1e3"/><path d="M799-197L483-329l11 367z" fill="#bdcad8" stroke="#bdcad8"/><path d="M1289-445L483-329l316 132z" fill="#9397a2" stroke="#9397a2"/><path d="M2134 144L1866-60l-26 484z" fill="#b1859a" stroke="#b1859a"/><path d="M1508 49l-219-494-39 518z" fill="#ccaec5" stroke="#ccaec5"/><path d="M1604-490l-315 45 219 494z" fill="#8f687f" stroke="#8f687f"/><path d="M655 1580l-966 96 1620 17z" fill="#b8899b" stroke="#b8899b"/><path d="M-121 1220l317 330 151-348z" fill="#aa8198" stroke="#aa8198"/><path d="M-4 835l-117 385 468-18z" fill="#c59bb4" stroke="#c59bb4"/><path d="M32,361L-196,690L-4,835Z" fill="#ced1df" stroke="#ced1df"/><path d="M-541 540l345 150L32 361z" fill="#a2a8b3" stroke="#a2a8b3"/><path d="M1309 1693l369-1-273-203z" fill="#ab4e71" stroke="#ab4e71"/><path d="M1801 1275l295 103-44-518z" fill="#973a5f" stroke="#973a5f"/><path d="M2256-111l-122 255-67 379z" fill="#af8397" stroke="#af8397"/><path d="M2067 523l67-379-233 345z" fill="#bb8b9b" stroke="#bb8b9b"/><path d="M-328 1033l207 187L-4 835z" fill="#aa819a" stroke="#aa819a"/><path d="M1942-329l-338-161 262 430z" fill="#714b62" stroke="#714b62"/><path d="M1866-60l-262-430-96 539z" fill="#a57d97" stroke="#a57d97"/><path d="M99-454L-22-134 354-21z" fill="#96a9bd" stroke="#96a9bd"/><path d="M2052 860l204-971-189 634z" fill="#bc8c9c" stroke="#bc8c9c"/><path d="M1678 1692l418-314-295-103z" fill="#84294f" stroke="#84294f"/><path d="M2256-111l-314-218-76 269z" fill="#866079" stroke="#866079"/><path d="M-196 690l-132 343L-4 835z" fill="#ad97ab" stroke="#ad97ab"/><path d="M-121 1220l-72 222 389 108z" fill="#956e88" stroke="#956e88"/><path d="M-541 540l213 493 132-343z" fill="#8f8392" stroke="#8f8392"/><path d="M-465 1260l272 182 72-222z" fill="#6e485f" stroke="#6e485f"/><path d="M483-329L99-454 354-21z" fill="#8e9dad" stroke="#8e9dad"/><path d="M1289-445L99-454l384 125z" fill="#848e99" stroke="#848e99"/><path d="M1604-490L99-454l1190 9z" fill="#82818d" stroke="#82818d"/><path d="M-22-134L-285-8 32 361z" fill="#a9bccf" stroke="#a9bccf"/><path d="M-286-359l1 351 263-126z" fill="#71869a" stroke="#71869a"/><path d="M2134 144l122-255-390 51z" fill="#9e768d" stroke="#9e768d"/><path d="M2096 1378l160-1489-204 971z" fill="#bc7c92" stroke="#bc7c92"/><path d="M2256-111l-182-287-132 69z" fill="#653f57" stroke="#653f57"/><path d="M1942-329l132-69-470-92z" fill="#5b364c" stroke="#5b364c"/><path d="M2096 1378l62 321 98-1810z" fill="#ad5174" stroke="#ad5174"/><path d="M1678 1692l480 7-62-321z" fill="#791d46" stroke="#791d46"/><path d="M1309 1693l849 6-480-7z" fill="#93365b" stroke="#93365b"/><path d="M-465 153l-76 387L32 361z" fill="#8c97a2" stroke="#8c97a2"/><path d="M-328 1033l-137 227 344-40z" fill="#764f66" stroke="#764f66"/><path d="M-285-8l-180 161L32 361z" fill="#8f9eae" stroke="#8f9eae"/><path d="M-286-359l-179 512L-285-8z" fill="#697c8f" stroke="#697c8f"/><path d="M99-454l-254 76 133 244z" fill="#697d90" stroke="#697d90"/><path d="M-541 540l76 720 137-227z" fill="#806075" stroke="#806075"/><path d="M99-454l-385 95 131-19z" fill="#506375" stroke="#506375"/><path d="M-155-378l-131 19 264 225z" fill="#57697c" stroke="#57697c"/><path d="M-465 1260l154 416 118-234z" fill="#59344b" stroke="#59344b"/><path d="M-193 1442l-118 234 507-126z" fill="#866079" stroke="#866079"/><path d="M196 1550l-507 126 966-96z" fill="#a37990" stroke="#a37990"/></g></svg>

<svg xmlns="http://www.w3.org/2000/svg" width="1440" height="900"><path d="M991,482L957,834L1186,686Z" fill="#fee4eb" stroke="#fee4eb" stroke-width="1.51"/><path d="M957,834L1291,935L1186,686Z" fill="#f9c7d7" stroke="#f9c7d7" stroke-width="1.51"/><path d="M1291,935L1406,526L1186,686Z" fill="#f7c4d4" stroke="#f7c4d4" stroke-width="1.51"/><path d="M1186,686L1406,526L991,482Z" fill="#fcdce6" stroke="#fcdce6" stroke-width="1.51"/><path d="M1406,526L1138,215L991,482Z" fill="#fae1ea" stroke="#fae1ea" stroke-width="1.51"/><path d="M991,482L542,470L957,834Z" fill="#fff5f7" stroke="#fff5f7" stroke-width="1.51"/><path d="M1138,215L915,198L991,482Z" fill="#f6eef4" stroke="#f6eef4" stroke-width="1.51"/><path d="M915,198L542,470L991,482Z" fill="#faf9fa" stroke="#faf9fa" stroke-width="1.51"/><path d="M542,470L510,949L957,834Z" fill="#fbe7ee" stroke="#fbe7ee" stroke-width="1.51"/><path d="M957,834L1026,1243L1291,935Z" fill="#efadc2" stroke="#efadc2" stroke-width="1.51"/><path d="M510,949L1026,1243L957,834Z" fill="#f2bbcc" stroke="#f2bbcc" stroke-width="1.51"/><path d="M542,470L254,535L510,949Z" fill="#f2eef5" stroke="#f2eef5" stroke-width="1.51"/><path d="M915,198L488,326L542,470Z" fill="#f4f8fc" stroke="#f4f8fc" stroke-width="1.51"/><path d="M1138,215L915,-111L915,198Z" fill="#e6e4ee" stroke="#e6e4ee" stroke-width="1.51"/><path d="M915,198L494,38L488,326Z" fill="#e9f1f8" stroke="#e9f1f8" stroke-width="1.51"/><path d="M1551,248L1250,73L1138,215Z" fill="#e7c7d8" stroke="#e7c7d8" stroke-width="1.51"/><path d="M1329,1257L1449,1122L1291,935Z" fill="#d981a0" stroke="#d981a0" stroke-width="1.51"/><path d="M1291,935L1627,1065L1406,526Z" fill="#ec9fba" stroke="#ec9fba" stroke-width="1.51"/><path d="M1026,1243L1329,1257L1291,935Z" fill="#da8da8" stroke="#da8da8" stroke-width="1.51"/><path d="M1406,526L1551,248L1138,215Z" fill="#f0c8d8" stroke="#f0c8d8" stroke-width="1.51"/><path d="M1840,424L1551,248L1406,526Z" fill="#e2b0c0" stroke="#e2b0c0" stroke-width="1.51"/><path d="M510,949L436,1125L1026,1243Z" fill="#e3b1c1" stroke="#e3b1c1" stroke-width="1.51"/><path d="M203,805L436,1125L510,949Z" fill="#e5bed0" stroke="#e5bed0" stroke-width="1.51"/><path d="M1449,1122L1627,1065L1291,935Z" fill="#dd7c9e" stroke="#dd7c9e" stroke-width="1.51"/><path d="M1801,1275L1627,1065L1449,1122Z" fill="#bc5d80" stroke="#bc5d80" stroke-width="1.51"/><path d="M276,342L254,535L542,470Z" fill="#ecf2f8" stroke="#ecf2f8" stroke-width="1.51"/><path d="M1250,73L915,-111L1138,215Z" fill="#e0d6e4" stroke="#e0d6e4" stroke-width="1.51"/><path d="M488,326L276,342L542,470Z" fill="#eef4fb" stroke="#eef4fb" stroke-width="1.51"/><path d="M1250,73L1289,-445L915,-111Z" fill="#c3b6c8" stroke="#c3b6c8" stroke-width="1.51"/><path d="M1551,248L1508,49L1250,73Z" fill="#deb4c9" stroke="#deb4c9" stroke-width="1.51"/><path d="M494,38L276,342L488,326Z" fill="#e3eef7" stroke="#e3eef7" stroke-width="1.51"/><path d="M915,-111L494,38L915,198Z" fill="#dfe6ef" stroke="#dfe6ef" stroke-width="1.51"/><path d="M-4,835L203,805L254,535Z" fill="#ddd5e3" stroke="#ddd5e3" stroke-width="1.51"/><path d="M254,535L203,805L510,949Z" fill="#e9d9e6" stroke="#e9d9e6" stroke-width="1.51"/><path d="M203,805L347,1202L436,1125Z" fill="#dbaec3" stroke="#dbaec3" stroke-width="1.51"/><path d="M655,1580L882,1565L1026,1243Z" fill="#be8999" stroke="#be8999" stroke-width="1.51"/><path d="M1627,1065L1852,851L1406,526Z" fill="#dc90ab" stroke="#dc90ab" stroke-width="1.51"/><path d="M1551,248L1866,-60L1508,49Z" fill="#c89cb2" stroke="#c89cb2" stroke-width="1.51"/><path d="M1852,851L1840,424L1406,526Z" fill="#dba2b3" stroke="#dba2b3" stroke-width="1.51"/><path d="M915,-111L799,-197L494,38Z" fill="#d3dde8" stroke="#d3dde8" stroke-width="1.51"/><path d="M1289,-445L799,-197L915,-111Z" fill="#a7a7b3" stroke="#a7a7b3" stroke-width="1.51"/><path d="M1840,424L1866,-60L1551,248Z" fill="#c79aae" stroke="#c79aae" stroke-width="1.51"/><path d="M1852,851L1901,489L1840,424Z" fill="#ca93a4" stroke="#ca93a4" stroke-width="1.51"/><path d="M655,1580L1026,1243L436,1125Z" fill="#c896a7" stroke="#c896a7" stroke-width="1.51"/><path d="M1026,1243L1405,1489L1329,1257Z" fill="#c0728e" stroke="#c0728e" stroke-width="1.51"/><path d="M1329,1257L1405,1489L1449,1122Z" fill="#be6585" stroke="#be6585" stroke-width="1.51"/><path d="M882,1565L1405,1489L1026,1243Z" fill="#ba798f" stroke="#ba798f" stroke-width="1.51"/><path d="M1627,1065L1801,1275L1852,851Z" fill="#bb5b7f" stroke="#bb5b7f" stroke-width="1.51"/><path d="M483,-329L354,-21L494,38Z" fill="#c6d6e6" stroke="#c6d6e6" stroke-width="1.51"/><path d="M494,38L354,-21L276,342Z" fill="#d5e3f0" stroke="#d5e3f0" stroke-width="1.51"/><path d="M347,1202L655,1580L436,1125Z" fill="#c394a7" stroke="#c394a7" stroke-width="1.51"/><path d="M1852,851L2067,523L1901,489Z" fill="#c28a9c" stroke="#c28a9c" stroke-width="1.51"/><path d="M1405,1489L1801,1275L1449,1122Z" fill="#b15276" stroke="#b15276" stroke-width="1.51"/><path d="M276,342L32,361L254,535Z" fill="#dee7f1" stroke="#dee7f1" stroke-width="1.51"/><path d="M203,805L-4,835L347,1202Z" fill="#d9b5ca" stroke="#d9b5ca" stroke-width="1.51"/><path d="M354,-21L32,361L276,342Z" fill="#d5e3f0" stroke="#d5e3f0" stroke-width="1.51"/><path d="M347,1202L196,1550L655,1580Z" fill="#b18499" stroke="#b18499" stroke-width="1.51"/><path d="M32,361L-4,835L254,535Z" fill="#dadee9" stroke="#dadee9" stroke-width="1.51"/><path d="M1801,1275L2052,860L1852,851Z" fill="#b5587b" stroke="#b5587b" stroke-width="1.51"/><path d="M1901,489L2134,144L1840,424Z" fill="#bc8d9e" stroke="#bc8d9e" stroke-width="1.51"/><path d="M2052,860L2067,523L1852,851Z" fill="#ba788e" stroke="#ba788e" stroke-width="1.51"/><path d="M1405,1489L1678,1692L1801,1275Z" fill="#9b3e63" stroke="#9b3e63" stroke-width="1.51"/><path d="M882,1565L1309,1693L1405,1489Z" fill="#b87089" stroke="#b87089" stroke-width="1.51"/><path d="M655,1580L1309,1693L882,1565Z" fill="#be8698" stroke="#be8698" stroke-width="1.51"/><path d="M354,-21L-22,-134L32,361Z" fill="#bfd1e3" stroke="#bfd1e3" stroke-width="1.51"/><path d="M799,-197L483,-329L494,38Z" fill="#bdcad8" stroke="#bdcad8" stroke-width="1.51"/><path d="M1289,-445L483,-329L799,-197Z" fill="#9397a2" stroke="#9397a2" stroke-width="1.51"/><path d="M2134,144L1866,-60L1840,424Z" fill="#b1859a" stroke="#b1859a" stroke-width="1.51"/><path d="M1508,49L1289,-445L1250,73Z" fill="#ccaec5" stroke="#ccaec5" stroke-width="1.51"/><path d="M1604,-490L1289,-445L1508,49Z" fill="#8f687f" stroke="#8f687f" stroke-width="1.51"/><path d="M655,1580L-311,1676L1309,1693Z" fill="#b8899b" stroke="#b8899b" stroke-width="1.51"/><path d="M-121,1220L196,1550L347,1202Z" fill="#aa8198" stroke="#aa8198" stroke-width="1.51"/><path d="M-4,835L-121,1220L347,1202Z" fill="#c59bb4" stroke="#c59bb4" stroke-width="1.51"/><path d="M32,361L-196,690L-4,835Z" fill="#ced1df" stroke="#ced1df" stroke-width="1.51"/><path d="M-541,540L-196,690L32,361Z" fill="#a2a8b3" stroke="#a2a8b3" stroke-width="1.51"/><path d="M1309,1693L1678,1692L1405,1489Z" fill="#ab4e71" stroke="#ab4e71" stroke-width="1.51"/><path d="M1801,1275L2096,1378L2052,860Z" fill="#973a5f" stroke="#973a5f" stroke-width="1.51"/><path d="M2256,-111L2134,144L2067,523Z" fill="#af8397" stroke="#af8397" stroke-width="1.51"/><path d="M2067,523L2134,144L1901,489Z" fill="#bb8b9b" stroke="#bb8b9b" stroke-width="1.51"/><path d="M-328,1033L-121,1220L-4,835Z" fill="#aa819a" stroke="#aa819a" stroke-width="1.51"/><path d="M1942,-329L1604,-490L1866,-60Z" fill="#714b62" stroke="#714b62" stroke-width="1.51"/><path d="M1866,-60L1604,-490L1508,49Z" fill="#a57d97" stroke="#a57d97" stroke-width="1.51"/><path d="M99,-454L-22,-134L354,-21Z" fill="#96a9bd" stroke="#96a9bd" stroke-width="1.51"/><path d="M2052,860L2256,-111L2067,523Z" fill="#bc8c9c" stroke="#bc8c9c" stroke-width="1.51"/><path d="M1678,1692L2096,1378L1801,1275Z" fill="#84294f" stroke="#84294f" stroke-width="1.51"/><path d="M2256,-111L1942,-329L1866,-60Z" fill="#866079" stroke="#866079" stroke-width="1.51"/><path d="M-196,690L-328,1033L-4,835Z" fill="#ad97ab" stroke="#ad97ab" stroke-width="1.51"/><path d="M-121,1220L-193,1442L196,1550Z" fill="#956e88" stroke="#956e88" stroke-width="1.51"/><path d="M-541,540L-328,1033L-196,690Z" fill="#8f8392" stroke="#8f8392" stroke-width="1.51"/><path d="M-465,1260L-193,1442L-121,1220Z" fill="#6e485f" stroke="#6e485f" stroke-width="1.51"/><path d="M483,-329L99,-454L354,-21Z" fill="#8e9dad" stroke="#8e9dad" stroke-width="1.51"/><path d="M1289,-445L99,-454L483,-329Z" fill="#848e99" stroke="#848e99" stroke-width="1.51"/><path d="M1604,-490L99,-454L1289,-445Z" fill="#82818d" stroke="#82818d" stroke-width="1.51"/><path d="M-22,-134L-285,-8L32,361Z" fill="#a9bccf" stroke="#a9bccf" stroke-width="1.51"/><path d="M-286,-359L-285,-8L-22,-134Z" fill="#71869a" stroke="#71869a" stroke-width="1.51"/><path d="M2134,144L2256,-111L1866,-60Z" fill="#9e768d" stroke="#9e768d" stroke-width="1.51"/><path d="M2096,1378L2256,-111L2052,860Z" fill="#bc7c92" stroke="#bc7c92" stroke-width="1.51"/><path d="M2256,-111L2074,-398L1942,-329Z" fill="#653f57" stroke="#653f57" stroke-width="1.51"/><path d="M1942,-329L2074,-398L1604,-490Z" fill="#5b364c" stroke="#5b364c" stroke-width="1.51"/><path d="M2096,1378L2158,1699L2256,-111Z" fill="#ad5174" stroke="#ad5174" stroke-width="1.51"/><path d="M1678,1692L2158,1699L2096,1378Z" fill="#791d46" stroke="#791d46" stroke-width="1.51"/><path d="M1309,1693L2158,1699L1678,1692Z" fill="#93365b" stroke="#93365b" stroke-width="1.51"/><path d="M-465,153L-541,540L32,361Z" fill="#8c97a2" stroke="#8c97a2" stroke-width="1.51"/><path d="M-328,1033L-465,1260L-121,1220Z" fill="#764f66" stroke="#764f66" stroke-width="1.51"/><path d="M-285,-8L-465,153L32,361Z" fill="#8f9eae" stroke="#8f9eae" stroke-width="1.51"/><path d="M-286,-359L-465,153L-285,-8Z" fill="#697c8f" stroke="#697c8f" stroke-width="1.51"/><path d="M99,-454L-155,-378L-22,-134Z" fill="#697d90" stroke="#697d90" stroke-width="1.51"/><path d="M-541,540L-465,1260L-328,1033Z" fill="#806075" stroke="#806075" stroke-width="1.51"/><path d="M99,-454L-286,-359L-155,-378Z" fill="#506375" stroke="#506375" stroke-width="1.51"/><path d="M-155,-378L-286,-359L-22,-134Z" fill="#57697c" stroke="#57697c" stroke-width="1.51"/><path d="M-465,1260L-311,1676L-193,1442Z" fill="#59344b" stroke="#59344b" stroke-width="1.51"/><path d="M-193,1442L-311,1676L196,1550Z" fill="#866079" stroke="#866079" stroke-width="1.51"/><path d="M196,1550L-311,1676L655,1580Z" fill="#a37990" stroke="#a37990" stroke-width="1.51"/></svg>
